X: 3
T: The Otter's Holt
R: reel
M: 4/4
L: 1/8
K: Bmin
e|:fBBA FEFB|(3ABA FB ABde|fBBA FEFA|(3Bcd cA Bcde|
fBBA FEFB|(3ABA FB ABde|faaf effe|1 dBBA ~B3e:|2 dBAF B3c||
|:d2fd Adfa|bfaf effe|d2fd Adfa|bfaf ~e3f|
~d2fd Adfa|bfaf efde|fBBA FEFA|(3Bcd cA ~B3c:|


T: The Otter's Holt
R: reel
M: 4/4
L: 1/8
K: Bmin
e|:fBBA FEFB|A2 FB ABde|fBBA FEFA|(3Bcd cA Bcde|
fBBA FEFB|A2 FB ABde|faaf effe|1 dBBA ~B2de:|2 dBAF B2Bc||
|d2fd Adfa|bfaf effe|d2fd Adfa|bfaf egfe|
~d2fd adfa|bfaf efde|fBBA FEFA|(3Bcd cA ~B2Bc|
|d2fd Adfa|bfaf effe|d2fd Adfa|bfaf ~e3f|
~d3f adfa|bfaf efde|fBBA FEFA|(3Bcd cA ~B2de||








